icons/actions/32/address-book-new.svg

<svg xmlns="http://www.w3.org/2000/svg" viewBox="0 0 32 32">
  <defs id="defs3051">
    <style type="text/css" id="current-color-scheme">
      .ColorScheme-Text {
        color:#4d4d4d;
      }
      </style>
  </defs>
 <path 
     style="fill:currentColor;fill-opacity:1;stroke:none" 
     d="m7 4v2h-3v6h3v8h-3v6h3v2h21v-24zm1 1h4v22h-4zm5 0h14v22h-14z"
     class="ColorScheme-Text"
     />
</svg>

<?xml version="1.0"?>
<!-- Created with Inkscape (http://www.inkscape.org/) -->
<svg xmlns:dc="http://purl.org/dc/elements/1.1/" xmlns:cc="http://creativecommons.org/ns#" xmlns:rdf="http://www.w3.org/1999/02/22-rdf-syntax-ns#" xmlns:svg="http://www.w3.org/2000/svg" xmlns="http://www.w3.org/2000/svg" xmlns:sodipodi="http://sodipodi.sourceforge.net/DTD/sodipodi-0.dtd" xmlns:inkscape="http://www.inkscape.org/namespaces/inkscape" width="32" height="32" id="svg5453" version="1.1" inkscape:version="0.91 r13725" sodipodi:docname="address-book-new.svg" viewBox="0 0 32 32">
  <defs id="defs5455">
    <style type="text/css" id="current-color-scheme">
      .ColorScheme-Text {
        color:#4d4d4d;
      }
      .ColorScheme-Background {
        color:#eff0f1;
      }
      .ColorScheme-Highlight {
        color:#3daee9;
      }
      .ColorScheme-ViewText {
        color:#31363b;
      }
      .ColorScheme-ViewBackground {
        color:#fcfcfc;
      }
      .ColorScheme-ViewHover {
        color:#93cee9;
      }
      .ColorScheme-ViewFocus{
        color:#3daee9;
      }
      .ColorScheme-ButtonText {
        color:#31363b;
      }
      .ColorScheme-ButtonBackground {
        color:#eff0f1;
      }
      .ColorScheme-ButtonHover {
        color:#93cee9;
      }
      .ColorScheme-ButtonFocus{
        color:#3daee9;
      }
      </style>
  </defs>
  <sodipodi:namedview id="base" pagecolor="#ffffff" bordercolor="#666666" borderopacity="1.0" inkscape:pageopacity="0" inkscape:pageshadow="2" inkscape:zoom="11.549408" inkscape:cx="11.289131" inkscape:cy="18.207216" inkscape:document-units="px" inkscape:current-layer="layer1" showgrid="true" fit-margin-top="0" fit-margin-left="0" fit-margin-right="0" fit-margin-bottom="0" inkscape:window-width="1920" inkscape:window-height="957" inkscape:window-x="-4" inkscape:window-y="0" inkscape:window-maximized="1" inkscape:showpageshadow="false" borderlayer="true" showguides="true" inkscape:guide-bbox="true" inkscape:object-nodes="true" inkscape:snap-bbox="true" inkscape:snap-global="true">
    <inkscape:grid type="xygrid" id="grid4063"/>
    <sodipodi:guide position="4,24" orientation="28,0" id="guide4280"/>
    <sodipodi:guide position="13,4" orientation="0,28" id="guide4282"/>
    <sodipodi:guide position="28,25" orientation="-28,0" id="guide4284"/>
    <sodipodi:guide position="15,28" orientation="0,-28" id="guide4286"/>
  </sodipodi:namedview>
  <metadata id="metadata5458">
    <rdf:RDF>
      <cc:Work rdf:about="">
        <dc:format>image/svg+xml</dc:format>
        <dc:type rdf:resource="http://purl.org/dc/dcmitype/StillImage"/>
        <dc:title/>
      </cc:Work>
    </rdf:RDF>
  </metadata>
  <g inkscape:label="Capa 1" inkscape:groupmode="layer" id="layer1" transform="translate(-384.57143,-515.798)">
    <path style="fill:currentColor;fill-opacity:1;stroke:none;stroke-width:2;stroke-linecap:butt;stroke-linejoin:round;stroke-miterlimit:4;stroke-dasharray:none" d="M 7 4 L 7 6 L 4 6 L 4 12 L 7 12 L 7 20 L 4 20 L 4 26 L 7 26 L 7 28 L 28 28 L 28 4 L 7 4 z M 8 5 L 12 5 L 12 27 L 8 27 L 8 5 z M 13 5 L 27 5 L 27 27 L 13 27 L 13 5 z " transform="translate(384.57143,515.798)" id="rect4260" class="ColorScheme-Text"/>
  </g>
</svg>
